source/images/icons/property/property-5.svg

<svg width="160" height="160" viewBox="0 0 160 160" fill="none" xmlns="http://www.w3.org/2000/svg">
<path d="M106.494 63.197H104.979V58.557C104.979 53.505 100.892 49.371 95.897 49.371H61.082C56.086 49.372 52 53.505 52 58.557V101.425C52 106.477 56.087 110.61 61.083 110.61H95.898C100.893 110.61 104.98 106.477 104.98 101.425V98.01H106.495C106.91 98.01 107.252 97.666 107.252 97.246V83.467C107.252 83.046 106.91 82.701 106.495 82.701H104.98V73.913H106.495C107.327 73.913 108.009 73.225 108.009 72.382V64.728C108.008 63.886 107.326 63.197 106.494 63.197ZM86.082 60.088C89.008 60.088 91.381 62.486 91.381 65.446C91.381 68.406 89.008 70.804 86.082 70.804C83.156 70.804 80.784 68.406 80.784 65.446C80.784 62.486 83.156 60.088 86.082 60.088ZM70.945 60.088C73.87 60.088 76.243 62.486 76.243 65.446C76.243 68.406 73.87 70.804 70.945 70.804C68.019 70.804 65.647 68.406 65.647 65.446C65.647 62.486 68.019 60.088 70.945 60.088ZM57.297 80.397C57.297 77.438 59.668 75.039 62.595 75.039C65.521 75.039 67.893 77.438 67.893 80.397C67.893 83.356 65.52 85.755 62.595 85.755C59.668 85.756 57.297 83.356 57.297 80.397ZM70.945 99.894C68.019 99.894 65.647 97.496 65.647 94.536C65.647 91.576 68.019 89.178 70.945 89.178C73.87 89.178 76.243 91.576 76.243 94.536C76.243 97.496 73.87 99.894 70.945 99.894ZM72.435 79.991C72.435 76.609 75.146 73.867 78.49 73.867C81.834 73.867 84.545 76.609 84.545 79.991C84.545 83.373 81.834 86.115 78.49 86.115C75.146 86.114 72.435 83.373 72.435 79.991ZM86.082 99.894C83.156 99.894 80.784 97.496 80.784 94.536C80.784 91.576 83.156 89.178 86.082 89.178C89.008 89.178 91.381 91.576 91.381 94.536C91.381 97.496 89.008 99.894 86.082 99.894ZM94.384 85.756C91.457 85.756 89.086 83.357 89.086 80.398C89.086 77.439 91.457 75.04 94.384 75.04C97.31 75.04 99.682 77.439 99.682 80.398C99.682 83.356 97.31 85.756 94.384 85.756Z" fill="#363636"/>
<path d="M61.646 46.31H95.333C96.176 46.31 96.765 45.629 96.639 44.796L95.023 34.028C95.023 34.028 95.023 34.027 95.021 34.026C94.771 32.362 93.189 31 91.506 31H65.474C63.788 31 62.206 32.362 61.957 34.028L60.342 44.795C60.217 45.628 60.803 46.31 61.646 46.31Z" fill="#363636"/>
<path d="M95.333 113.671H61.646C60.803 113.671 60.217 114.354 60.342 115.187L61.957 125.954C62.207 127.62 63.789 128.982 65.473 128.982H91.505C93.189 128.982 94.771 127.62 95.022 125.956V125.954L96.637 115.187C96.765 114.354 96.176 113.671 95.333 113.671Z" fill="#363636"/>
</svg>

<svg width="160" height="160" viewBox="0 0 160 160" fill="none" xmlns="http://www.w3.org/2000/svg"><path d="M106.5 63.2h-1.52v-4.64a9.16 9.16 0 00-9.08-9.19H61.08c-5 0-9.08 4.14-9.08 9.19v42.86a9.16 9.16 0 009.08 9.19H95.9c5 0 9.08-4.13 9.08-9.19v-3.41h1.52c.41 0 .75-.34.75-.76V83.47a.76.76 0 00-.75-.77h-1.52v-8.79h1.52c.83 0 1.5-.69 1.5-1.53v-7.65c0-.84-.67-1.53-1.5-1.53zm-20.42-3.11c2.93 0 5.3 2.4 5.3 5.36a5.33 5.33 0 01-5.3 5.35c-2.92 0-5.3-2.4-5.3-5.35a5.33 5.33 0 015.3-5.36zm-15.14 0c2.93 0 5.3 2.4 5.3 5.36a5.33 5.33 0 01-5.3 5.35c-2.92 0-5.3-2.4-5.3-5.35a5.33 5.33 0 015.3-5.36zM57.3 80.39a5.33 5.33 0 015.3-5.35c2.92 0 5.3 2.4 5.3 5.36a5.33 5.33 0 01-5.3 5.35c-2.93 0-5.3-2.4-5.3-5.35zm13.64 19.5c-2.92 0-5.3-2.4-5.3-5.35a5.33 5.33 0 015.3-5.36c2.93 0 5.3 2.4 5.3 5.36a5.33 5.33 0 01-5.3 5.35zm1.5-19.9a6.09 6.09 0 016.05-6.12 6.09 6.09 0 016.06 6.12 6.09 6.09 0 01-6.06 6.13 6.1 6.1 0 01-6.05-6.13zm13.64 19.9c-2.92 0-5.3-2.4-5.3-5.35a5.33 5.33 0 015.3-5.36c2.93 0 5.3 2.4 5.3 5.36a5.33 5.33 0 01-5.3 5.35zm8.3-14.13c-2.92 0-5.3-2.4-5.3-5.36a5.33 5.33 0 015.3-5.36c2.93 0 5.3 2.4 5.3 5.36a5.33 5.33 0 01-5.3 5.36zM61.65 46.31h33.68c.85 0 1.44-.68 1.3-1.51l-1.6-10.77A3.68 3.68 0 0091.5 31H65.47a3.68 3.68 0 00-3.51 3.03L60.34 44.8c-.12.83.46 1.51 1.3 1.51zm33.68 67.36H61.65c-.85 0-1.43.68-1.3 1.52l1.6 10.76a3.68 3.68 0 003.52 3.03H91.5a3.68 3.68 0 003.52-3.02l1.62-10.77a1.28 1.28 0 00-1.3-1.52z" fill="#363636"/></svg>
